X:150
T:Row Polkas. Le4.150, The
Q:1/4=100
L:1/8
B:L.Leadley MS#4 c1850
Z:vmp.Mike Hicken 2016 www.village-music-project.org.uk
N:from elsewhere - composed on comic French airs by Louis Antoine Jullien in 1845
N: * These notes may be staccato in the original but it is not clear.
M:2/4
K:C
{B/}cz {B/}cz|{c/}"*"e"*"c cz|GB/c/ de|fd dz|{^c/}dz {c/}dz|{d/}fd dz|GB/c/ de|{e/}dccz !fermata!:|
c2 G>e|c3 z/d/|e>fgc |!>(!e2 !>)!dz|d2 e>c|d3z/ g/|{g/}f>e {e/}d>c|d3 "^Da Capo"z:|

